X:6
T:Bransle
C:trad.
D:Perlinpinpin Flc - Als Curis -- Musica gasconha
Z:<anamnese@laposte.net> -- http://anamnese.fr.st
M:6/8
L:1/8
Q:1/4=110
K:G
|: B2 cB cd | c2 BA GA |
   B2 cB cd | c2 B A2 A :|
|: B2 cB AG | A2 BA GF |
   G2 A B2 G/G/ | EF G A2A :|
